X:1
T:Polovtsian Dances / Stranger in Paradise (theme)
C:Alexander Borodin
M:6/8
L:1/8
Q:3/8=96
K:A
% Gliding Dance of the Maidens — Prince Igor, Act II
A | E3 A2 c | B3 A3 | E3 A2 c | B3 A3 |
E3 A2 c | BAc BAE | A3 E3 | A3 z3 |
ABc BAE | A3 c3 | cBA cBA | E6 |
ABc BAE | A2 c BAE | A3 EAc | A6 |]
